packages/core/src/svgs/tokens/mono/UNIBOT.svg

<svg width="24" height="24" viewBox="0 0 24 24" fill="none" xmlns="http://www.w3.org/2000/svg">
<path d="M13.8748 20.1251L13.2498 21.6876L12.6248 17.6438L13.8748 20.1251Z" fill="white"/>
<path d="M12.9379 17L13.8755 20.1251L12.6254 17.6251L8.25049 12L9.18799 12.625H9.50051L12.9379 17Z" fill="white"/>
<path d="M2.93751 11.0625L2.625 15.75L6.37499 5.75L2.93751 11.0625Z" fill="white"/>
<path d="M8.24998 6.06249L6.37499 5.75L2.625 15.75L8.24998 6.06249Z" fill="white"/>
<path d="M7.3125 14.5L8.24998 6.0625L2.625 15.75L7.3125 14.5Z" fill="white"/>
<path d="M7.3125 14.1874L8.24999 6.06249L21.3749 2L10.1251 7.62498L8.24999 11.9999L12.6249 17.625L7.3125 14.1874Z" fill="white"/>
<path d="M9.5 3.24999L10.125 2L10.4374 3.87499L10.125 4.81249L9.5 5.125V3.24999Z" fill="white"/>
<path d="M11.6879 3.24999L10.1255 2L10.4379 3.87499H11.6879V3.24999Z" fill="white"/>
<path d="M10.4379 3.875L10.1255 4.8125L11.6879 4.5L10.7504 3.875H10.4379Z" fill="white"/>
<path d="M11.6876 3.875H10.75L11.6876 4.49999H12.625L11.6876 3.25V3.875Z" fill="white"/>
<path d="M8.24998 20.7499L2.625 15.75L3.87499 17.625L8.24998 20.7499Z" fill="white"/>
<path d="M5.75 14.8125L2.625 15.7501L8.24998 20.7499H9.18749L5.75 14.8125Z" fill="white"/>
<path d="M7.31225 14.1875L5.74976 14.8125L9.18724 20.75L11.3747 19.8126L12.6247 17.6251L7.31225 14.1875Z" fill="white"/>
<path d="M13.2505 21.6875L12.6254 17.625L11.3755 19.8125L8.25049 20.7499L9.81303 22L13.2505 21.6875Z" fill="white"/>
<path d="M8.24999 6.06249L6.375 5.74999L21.3749 2L8.24999 6.06249Z" fill="white"/>
<path d="M9.18799 12.625L8.25049 12L9.18799 9.8125L9.50051 12.625H9.18799Z" fill="white"/>
<path d="M9.1875 11.0626V9.8125L10.4374 10.125V11.3751L10.1251 11.6875L9.1875 11.0626Z" fill="white"/>
<path d="M12.9375 7.3125L10.75 8.56251L15.75 11.9999L12.9375 7.3125Z" fill="white"/>
<path d="M14.4999 12L10.4373 10.125V11.3751L14.4999 12Z" fill="white"/>
<path d="M14.5001 11.9999L9.1875 9.81244L10.75 8.5625L15.75 11.9999H14.5001Z" fill="white"/>
<path d="M10.4379 11.375L10.1255 11.6874L12.9379 12.9375L14.5005 11.9999L10.4379 11.375Z" fill="white"/>
<path d="M12.9375 12.9376L14.5001 12V14.1875L12.9375 12.9376Z" fill="white"/>
<path d="M15.7504 12H14.5005V13.2501H15.7504V12Z" fill="white"/>
<path d="M14.5005 14.1874V13.25H15.7504L16.688 14.1874H14.5005Z" fill="white"/>
<path d="M16.6876 14.1875L15.75 13.2501V12H16.9999L17.3125 12.9376L16.6876 14.1875Z" fill="white"/>
<path d="M17 11.9999H15.75L12.9375 7.31251L13.8751 7L16.6876 10.75L17 11.9999Z" fill="white"/>
<path d="M21.3749 2L9.1875 9.81243L21.3749 2.625V2Z" fill="white"/>
<path d="M10.1251 7.31249L21.3749 2L9.1875 9.81243L10.1251 7.31249Z" fill="white"/>
</svg>

<svg xmlns="http://www.w3.org/2000/svg" width="24" height="24" fill="none" viewBox="0 0 24 24">
    <path fill="#fff" d="m13.875 20.125-.625 1.563-.625-4.044z"/>
    <path fill="#fff" d="m12.938 17 .938 3.125-1.25-2.5L8.25 12l.938.625h.313zm-10-5.937-.313 4.687 3.75-10z"/>
    <path fill="#fff" d="M8.25 6.062 6.375 5.75l-3.75 10zM7.313 14.5l.937-8.437-5.625 9.687z"/>
    <path fill="#fff" d="m7.313 14.187.937-8.125L21.375 2l-11.25 5.625L8.25 12l4.375 5.625zM9.5 3.25 10.125 2l.312 1.875-.312.937-.625.313zm2.188 0L10.126 2l.312 1.875h1.25z"/>
    <path fill="#fff" d="m10.438 3.875-.312.938 1.562-.313-.938-.625z"/>
    <path fill="#fff" d="M11.688 3.875h-.938l.938.625h.937l-.937-1.25zM8.25 20.75l-5.625-5 1.25 1.875z"/>
    <path fill="#fff" d="m5.75 14.813-3.125.937 5.625 5h.937zm1.562-.625-1.562.624 3.437 5.938 2.188-.937 1.25-2.188z"/>
    <path fill="#fff" d="m13.25 21.688-.625-4.063-1.25 2.188-3.125.937L9.813 22zm-5-15.626L6.375 5.75l15-3.75zm.938 6.563L8.25 12l.938-2.187.313 2.812z"/>
    <path fill="#fff" d="M9.188 11.063v-1.25l1.25.312v1.25l-.313.313zm3.75-3.75-2.188 1.25 5 3.437z"/>
    <path fill="#fff" d="m14.5 12-4.063-1.875v1.25z"/>
    <path fill="#fff" d="M14.5 12 9.188 9.812l1.562-1.25 5 3.438zm-4.062-.625-.312.312 2.812 1.25L14.5 12zm2.5 1.563L14.5 12v2.188zM15.75 12H14.5v1.25h1.25zm-1.25 2.187v-.937h1.25l.938.937z"/>
    <path fill="#fff" d="m16.688 14.188-.938-.938V12H17l.313.938zM17 12h-1.25l-2.812-4.687.937-.313 2.813 3.75z"/>
    <path fill="#fff" d="M21.375 2 9.188 9.812l12.187-7.187z"/>
    <path fill="#fff" d="M10.125 7.312 21.375 2 9.188 9.812z"/>
</svg>
